X:8660
T:Kiss the Maid Behind the Barrel
S:irtrad-l, J. Walsh, 10/94
H:Seamus Ennis
Z:the notation "J" means to slide up into the following note
R:reel
E:7
I:speed 350
M:C|
K:G
DG~G2 AFGE|DG~G2 cAFA|DG~G2 AG~G2|defd cAFA|\
DG~G2 AFGE|DG~G2 cAFA|DG~G2 AG~G2|defd cAFA||
dg~g2 afge|dg~g2 ag (3.f.g.e|d^cde Jfefe|defd cAFA|\
dg~g2 afge|dg~g2 bgfg|abag (3.f.g.f ef|dfeg fdcA||
~G2dG BGdG|~G2dB cAFA|~G2 dG BGdG|defd cAFA|\
~G2dG BGdG|~G2dB cAFA|G3B A3c|defd cAFA||
B2BG A2AG|BABc dedc|~B3G A2Bc|defd cAFA|\
JB2 BG (3.A.B.A AG|BABc dedc|~B3G A2Bc|defd cAFA||
